X:1
T:Come, Holy Spirit
T:Come, Holy Spirit
T:Scott Werdebaugh, 2018
T:Scott Werdebaugh, 2018
T:© 2018 Scott Werdebaugh &amp; New Heart Music. May freely copy &amp; use for Christian worship &amp; devotion with no alterations. All other rights are reserved.
T:© 2018 Scott Werdebaugh &amp; New Heart Music. May freely copy &amp; use for Christian worship &amp; devotion with no alterations. All other rights are reserved.
C:Scott Werdebaugh, 2018
Z:© 2018 Scott Werdebaugh & New Heart Music. May freely copy & use for
Z:Christian worship & devotion with no alterations. All other rights are reserved.
%%score ( 1 2 ) ( 3 4 )
L:1/8
Q:1/4=108
M:4/4
K:C
V:1 treble 
V:2 treble 
V:3 bass 
V:4 bass 
V:1
"^Reverently" [CE]4 [Ec]2 [DB]2 | [CA]4 [EG]4 | [G,C]2 [G,C]2 [A,C]4 | [B,D]2 [B,D]2 [CE]4- | %4
w: 1.~Come, Ho- ly|Spir- it|of my Lord|Je- sus Christ;|
w: 2.~Come, Ho- ly|Spir- it|of my Lord|Je- sus Christ;|
 [CE]2 z2 [EG]4 | [Ec]4 [FA]2 [EG]2 | [CE]4 [G,C]4 | [EG]4 ([DF]2 [CE]2) | [B,D]6 z2 | %9
w: * O|come, Ho- ly|Spir- it,|Come just *|now.|
w: * O|come, Ho- ly|Spir- it,|Come just *|now.|
 [EG]4 [FA]2 [EG]2 | [CE]4 [G,C]4 | [EG]2 [EG]2 [DF]2 [CE]2 | [B,D]6 z2 | [EG]4 [CA]2 [DB]2 | %14
w: I need to|sense Your|pres- ence in my|life,|For all a-|
w: May I be|one with|Your will in my|life;|Through me I|
 [Ec]4 [EG]4 | [FA]4 [Ec]2 [Ec]2 | [DB]4 [DA]2 [CA]2 | [DG]6 z2 | [Ec]4 [DB]2 [CA]2 | [EG]6 z2 | %20
w: round I|strug- gle with|e- vil and|strife.|Teach me Your|peace,|
w: ask Your|Spir- it to|free \- ly|flow.|Teach me Your|peace,|
 [CA]4 [DG]2 [DF]2 | [CE]6 [CE]2 | [EG]4 [CA]2 [DB]2 | [Ec]6 [EG]2 | [CF]2 [CE]2 [B,E]2 [B,D]2 | %25
w: Help me to|grow, And|Lord Je- sus|Christ, be-|fore You I now|
w: Help me to|grow, And|Lord Je- sus|Christ, be-|fore You I now|
 [G,C]6 z2 ||"^Refrain" [Ec]4 [Ec]2 [DB]2 | [CA]4 [EG]4 | [A,C]4 [B,D]4 | [CE]6 z2 | %30
w: bow.|||||
w: bow.|||||
 [CA]3 [DB] [DB]2 [Ec]2 | [Ec]4 [Fd]4 | [Ge]2 [Ec]2 [Fd]2 [DB]2 | [Ec]6 z2 | [Ec]4 [Ec]2 [DB]2 | %35
w: |||||
w: |||||
 [CA]4 [EG]4 | (A2 G2) [CF]4 | [CE]6 z2 | [DF]4 [CA]2 [DB][DB] | [Ec]4 [Fd]4 | [Ge]4 [Fd]4 | %41
w: ||||||
w: ||||||
 [Ec]6 z2"^Play 2 times" :| %42
w: |
w: |
V:2
 x8 | x8 | x8 | x8 | x8 | x8 | x8 | x8 | x8 | x8 | x8 | x8 | x8 | x8 | x8 | x8 | x8 | x8 | x8 | %19
 x8 | x8 | x8 | x8 | x8 | x8 | x8 || x8 | x8 | x8 | x8 | x8 | x8 | x8 | x8 | x8 | x8 | C4 x4 | x8 | %38
 x8 | x8 | x8 | x8 :| %42
V:3
 [C,G,]4 [C,C]2 [G,,G,]2 | [F,,F,]4 [C,G,]4 | [C,E,]2 [C,E,]2 [F,,F,]4 | %3
w: |||
 [G,,G,]2 [G,,G,]2 [C,G,]4- | [C,G,]2 z2 [C,C]4 | [C,G,]4 [F,C]2 [C,C]2 | [C,G,]4 [C,E,]4 | %7
w: ||||
 [C,G,]4 ([G,B,]2 [C,G,]2) | [G,,G,]6 z2 | [C,C]4 [F,C]2 [C,C]2 | [C,G,]4 [C,E,]4 | %11
w: ||||
 [C,G,]2 [C,C]2 [G,B,]2 [C,G,]2 | [G,,G,]6 z2 | [C,C]4 [F,A,]2 [G,,G,]2 | [C,G,]4 [C,C]4 | %15
w: ||||
 [F,C]4 [C,G,]2 [C,G,]2 | [G,,G,]4 [D,^F,]2 [D,F,]2 | [G,,B,]6 z2 | [C,G,]4 [G,,G,]2 [F,,=F,]2 | %19
w: ||||
 [C,C]6 z2 | [F,A,]4 [G,B,]2 [G,B,]2 | [A,,A,]6 [C,G,]2 | [C,C]4 [F,A,]2 [G,,G,]2 | %23
w: ||||
 [C,G,]6 [C,C]2 | [F,A,]2 [C,G,]2 [E,G,]2 [G,,F,]2 | [C,E,]6 z2 || [C,G,]4 [C,G,]2 [G,,G,]2 | %27
w: |||Come, Ho- ly|
 [F,,A,]4 [C,C]4 | [F,,F,]4 [G,,G,]4 | [C,G,]6 z2 | [F,A,]3 [G,,G,] [G,,G,]2 [C,G,]2 | %31
w: Spir- it,|full of|grace,|Fill me full with|
 [C,G,]4 [G,B,]4 | [C,C]2 [C,G,]2 [G,,B,]2 [G,,G,]2 | [C,G,]6 z2 | [C,G,]4 [C,G,]2 [G,,G,]2 | %35
w: Your great|love, joy, peace, and|pow’r.|Help me to|
 [F,,F,]4 [C,C]4 | [F,A,]4 [F,A,]4 | [C,G,]6 z2 | [G,,G,]4 [F,,F,]2 [G,,G,][G,,G,] | %39
w: stand for|You each|day;|Un- til I am|
 [C,G,]4 [G,B,]4 | [C,C]4 (B,2 A,2) | [C,G,]6 z2"^Play 2 times" :| %42
w: with You,|face to *|face!|
V:4
 x8 | x8 | x8 | x8 | x8 | x8 | x8 | x8 | x8 | x8 | x8 | x8 | x8 | x8 | x8 | x8 | x8 | x8 | x8 | %19
 x8 | x8 | x8 | x8 | x8 | x8 | x8 || x8 | x8 | x8 | x8 | x8 | x8 | x8 | x8 | x8 | x8 | x8 | x8 | %38
 x8 | x8 | x4 G,,4 | x8 :| %42

